X:1
T:ALICE BLUE GOWN
M:3/4
L:1/4
K:C
 C/2D/2| E c3/2 A/2| B G A| E3-| E z D/2E/2| ^F c3/2 c/2| c B c| A3-|\
 A z A/2A/2| B d B| G2 B/2G/2| A c| A| E2 G/2A/2| G ^F ^E| ^F B3/2 A/2|\
 A3/2 d/2 B| G2 C/2D/2| E c3/2 A/2| B G A| E3-| E z D/2E/2| F G A|\
 B c| d| e3-| e z e/2e/2| d e3/2 d/2| A B3/2 d/2| B c3/2 G/2| E F G|\
 A B c| B c d| c3-| c z||
